material/.icons/material/account-cowboy-hat.svg

<svg xmlns="http://www.w3.org/2000/svg" viewBox="0 0 24 24"><path d="M20 22H4v-2c0-2.2 3.6-4 8-4s8 1.8 8 4M8 9h8v1c0 2.2-1.8 4-4 4s-4-1.8-4-4m11-6c-.6 0-1 .4-1 1v1h-1.5l-1.4-3c-.1-.2-.2-.4-.4-.5-.5-.5-1.3-.6-2-.3l-.7.2-.7-.3c-.7-.3-1.5-.2-2 .3-.2.2-.3.4-.4.6L7.5 6H6V5c0-.6-.4-1-1-1s-1 .4-1 1v1c0 1.1.9 2 2 2h12c1.1 0 2-.9 2-2V5c0-.5-.4-1-1-1z"/></svg>

<?xml version="1.0" encoding="UTF-8"?><!DOCTYPE svg PUBLIC "-//W3C//DTD SVG 1.1//EN" "http://www.w3.org/Graphics/SVG/1.1/DTD/svg11.dtd"><svg xmlns="http://www.w3.org/2000/svg" xmlns:xlink="http://www.w3.org/1999/xlink" version="1.1" id="mdi-account-cowboy-hat" width="24" height="24" viewBox="0 0 24 24"><path d="M20 22H4V20C4 17.8 7.6 16 12 16S20 17.8 20 20M8 9H16V10C16 12.2 14.2 14 12 14S8 12.2 8 10M19 4C18.4 4 18 4.4 18 5V6H16.5L15.1 3C15 2.8 14.9 2.6 14.7 2.5C14.2 2 13.4 1.9 12.7 2.2L12 2.4L11.3 2.1C10.6 1.8 9.8 1.9 9.3 2.4C9.1 2.6 9 2.8 8.9 3L7.5 6H6V5C6 4.4 5.6 4 5 4S4 4.4 4 5V6C4 7.1 4.9 8 6 8H18C19.1 8 20 7.1 20 6V5C20 4.5 19.6 4 19 4Z" /></svg>
